images/flag/china.svg

<svg xmlns="http://www.w3.org/2000/svg" width="29" height="29" fill="none">
	<path fill="#E94B35"
		d="M14.4706 28.9322c7.9919 0 14.4706-6.4767 14.4706-14.4661C28.9412 6.47669 22.4625 0 14.4706 0 6.47871 0 0 6.47669 0 14.4661c0 7.9894 6.47871 14.4661 14.4706 14.4661Z" />
	<path fill="#F2C500" fill-rule="evenodd"
		d="m17.5828 9.80144-.6275.31706.1199-.67156-.5077-.4757.7016-.098.3137-.611.3137.611.7015.098-.5076.4757.1198.67156-.6274-.31706Zm-.3113-3.23521-.6275.31711.1198-.6717-.5076-.47561.7015-.098.3138-.611.3137.611.7015.098-.5076.47561.1198.6717-.6274-.31711ZM9.64993 11.1117l-2.98001 1.506.56911-3.18966-2.41091-2.25891 3.33181-.46539 1.49-2.90201 1.48997 2.90201 3.3317.46539-2.4108 2.25891.5691 3.18966-2.97997-1.506Zm5.43397 1.5032-.6275.3171.1199-.6716-.5077-.4756.7016-.098.3137-.611.3137.611.7015.098-.5076.4756.1199.6716-.6275-.3171Zm-.4919-8.20217-.6274.31711.1198-.6716-.5076-.47561.7015-.098.3137-.61109.3138.61109.7015.098-.5076.47561.1198.6716-.6275-.31711Z"
		clip-rule="evenodd" />
</svg>

<svg width="29" height="29" viewBox="0 0 29 29" fill="none" xmlns="http://www.w3.org/2000/svg">
<path d="M14.4706 28.9322C22.4625 28.9322 28.9412 22.4555 28.9412 14.4661C28.9412 6.47669 22.4625 0 14.4706 0C6.47871 0 0 6.47669 0 14.4661C0 22.4555 6.47871 28.9322 14.4706 28.9322Z" fill="#E94B35"/>
<path fill-rule="evenodd" clip-rule="evenodd" d="M17.5828 9.80144L16.9553 10.1185L17.0752 9.44694L16.5675 8.97124L17.2691 8.87324L17.5828 8.26224L17.8965 8.87324L18.598 8.97124L18.0904 9.44694L18.2102 10.1185L17.5828 9.80144ZM17.2715 6.56623L16.644 6.88334L16.7638 6.21164L16.2562 5.73603L16.9577 5.63803L17.2715 5.02703L17.5852 5.63803L18.2867 5.73603L17.7791 6.21164L17.8989 6.88334L17.2715 6.56623ZM9.64993 11.1117L6.66992 12.6177L7.23903 9.42804L4.82812 7.16913L8.15993 6.70374L9.64993 3.80173L11.1399 6.70374L14.4716 7.16913L12.0608 9.42804L12.6299 12.6177L9.64993 11.1117ZM15.0839 12.6149L14.4564 12.932L14.5763 12.2604L14.0686 11.7848L14.7702 11.6868L15.0839 11.0758L15.3976 11.6868L16.0991 11.7848L15.5915 12.2604L15.7114 12.932L15.0839 12.6149ZM14.592 4.41273L13.9646 4.72984L14.0844 4.05824L13.5768 3.58263L14.2783 3.48463L14.592 2.87354L14.9058 3.48463L15.6073 3.58263L15.0997 4.05824L15.2195 4.72984L14.592 4.41273Z" fill="#F2C500"/>
</svg>
